X:1
T: Archie Buchanan
C:
R:Jig
Q:180
K:G
M:6/8
L:1/16
D2|D3GG2 G4A2|B3GG2 G4B2|c2d2e2 dg3B2|c2A2F2 D4D2|D3GG2 G4A2|B3GG2 G4B2|c2d2e2 dg3B2|A2G2G2 G4d2|
g3bg2 a2f2d2|e3ge2 d2B2G2|c2d2e2 d2g2B2|c2A2F2 D6|g3bg2 a2f2d2|e3ge2 d2B2G2|c2d2e2 dg3B2|A2G2G2 G4D2|
D3GG2 G4A2|B3GG2 G4B2|c2d2e2 dg3B2|c2A2F2 D4D2|D3GG2 G4A2|B3GG2 G4B2|c2d2e2 dg3B2|A2G2G2 G4d2|
g3bg2 a2f2d2|e3ge2 d2B2G2|c2d2e2 d2g2B2|c2A2F2 D6|g3bg2 a2f2d2|e3ge2 d2B2G2|c2d2e2 dg3B2|A2G2G2 G4||
